kwork_juristConsalt/img/svg/handshake.svg

<svg width="100" height="100" viewBox="0 0 100 100" fill="none" xmlns="http://www.w3.org/2000/svg">
<path d="M81.6907 48.6527L79.1505 28.0175L74.3904 28.6034L74.3923 28.6001L65.1639 23.4065C64.1795 22.8526 63.0498 22.6116 61.925 22.7155L47.3536 24.0632C45.5624 24.2288 43.9618 25.2509 43.0581 26.8063L32.7878 44.4836C32.0294 45.7889 32.6247 47.4629 34.037 47.9963L34.4571 48.1549C35.2653 48.4601 36.096 48.6369 36.9263 48.706L35.6249 49.8394L33.0214 52.1078L25.6166 58.4242C24.2984 59.5724 24.1615 61.5704 25.3097 62.8886L26.0609 63.7489C27.5355 65.44 30.1021 65.6155 31.7962 64.1405L34.6263 67.3866C35.5464 68.4433 36.8944 68.9106 38.1896 68.7513C38.9679 68.6556 39.7272 68.3329 40.3614 67.7782L43.1884 71.0245C44.1118 72.0839 45.4596 72.5481 46.7547 72.3888C47.5331 72.2929 48.2926 71.9733 48.927 71.4188L50.4633 72.7466C51.9383 74.4405 54.5078 74.6157 56.202 73.1407L58.2904 71.3186L75.8482 57.6445L75.8671 57.6271L82.7945 57.6203L81.6907 48.6527Z" fill="#F29F5C"/>
<path d="M74.1659 52.3109L74.147 52.3283L56.5892 66.0024L54.5008 67.8245C52.8068 69.2995 50.2371 69.1243 48.7621 67.4303L47.2258 66.1026C46.5914 66.6571 45.8317 66.9768 45.0535 67.0725C43.7584 67.2319 42.4108 66.7677 41.4871 65.7083L38.6602 62.462C38.0258 63.0165 37.2665 63.3392 36.4883 63.4351C35.1932 63.5944 33.8452 63.1272 32.9251 62.0704L30.095 58.8243C28.6446 60.0872 26.5563 60.1364 25.0597 59.064C24.2921 60.2214 24.3534 61.7901 25.3103 62.8886L26.0614 63.7489C27.536 65.4399 30.1026 65.6155 31.7968 64.1405L34.6268 67.3866C35.5469 68.4432 36.895 68.9106 38.1901 68.7512C38.9684 68.6555 39.7276 68.3329 40.362 67.7782L43.1889 71.0247C44.1123 72.084 45.4602 72.5483 46.7553 72.3889C47.5336 72.293 48.2932 71.9735 48.9275 71.419L50.4639 72.7467C51.9389 74.4407 54.5084 74.6159 56.2025 73.1409L58.291 71.3188L75.8487 57.6446L75.8677 57.6273L82.795 57.6204L82.0286 51.3947L74.1659 52.3109Z" fill="#D37D42"/>
<path d="M77.3632 61.2367L67.956 53.1254L65.34 50.8715L63.4681 49.2594L55.4199 42.3219L56.3494 34.4098C56.6638 31.7338 54.9793 29.2286 52.3824 28.51L34.8385 23.6556C32.9823 23.1419 31.0204 24.0032 30.1422 25.7175L27.936 30.0241L18.4657 29.3813L16.04 50.0305L14.9857 59.004L24.204 59.6171L24.2231 59.6345L43.4813 76.2346L45.5799 78.0452C47.282 79.5108 49.8506 79.3214 51.3162 77.6192L54.1248 74.3602C54.7621 74.9112 55.5236 75.2266 56.3025 75.3182C57.5984 75.4706 58.9437 74.9987 59.8613 73.9343L62.6702 70.6724C63.3075 71.2233 64.0687 71.5419 64.8476 71.6333C66.1435 71.7856 67.489 71.3108 68.4032 70.2489L71.2151 66.9872C72.9173 68.4528 75.4829 68.263 76.9481 66.5638L77.6946 65.6991C78.8356 64.3749 78.6876 62.3777 77.3632 61.2367Z" fill="#F9C295"/>
<path d="M77.3631 61.2366L74.4977 58.7659C75.429 60.0009 75.4098 61.7577 74.3588 62.9776L73.5665 63.8954C72.011 65.6991 69.2876 65.9007 67.4806 64.3448L64.4954 67.8073C63.5249 68.9344 62.0966 69.4384 60.7208 69.2768C59.8941 69.1798 59.0861 68.8417 58.4095 68.2567L55.4275 71.7196C54.4535 72.8495 53.0255 73.3503 51.6498 73.1887C50.823 73.0917 50.0146 72.7567 49.3381 72.1717L46.3564 75.6315C45.7947 76.284 45.0793 76.7237 44.3107 76.9502L45.5801 78.0454C47.2822 79.511 49.8507 79.3215 51.3164 77.6194L54.1249 74.3604C54.7622 74.9114 55.5238 75.2268 56.3027 75.3184C57.5986 75.4706 58.9439 74.9989 59.8614 73.9344L62.6704 70.6725C63.3077 71.2235 64.0688 71.5421 64.8477 71.6335C66.1436 71.7858 67.4891 71.311 68.4034 70.2491L71.2153 66.9874C72.9174 68.453 75.4831 68.2632 76.9483 66.5639L77.6948 65.6993C78.8356 64.3749 78.6875 62.3776 77.3631 61.2366Z" fill="#E59F6A"/>
<path d="M72.1677 65.9013L67.013 61.4568C66.4007 60.9286 65.4755 60.997 64.947 61.6097C64.4187 62.2224 64.4872 63.1474 65.0999 63.6757L70.2454 68.1124L71.2153 66.9874C71.6024 67.3208 72.0354 67.564 72.4888 67.7278C72.8233 67.1323 72.7048 66.3644 72.1677 65.9013Z" fill="#E59F6A"/>
<path d="M63.9261 71.4112C64.279 70.8126 64.1659 70.0296 63.621 69.5596L58.9905 65.5673C58.3778 65.0391 57.453 65.1075 56.9245 65.7202C56.3962 66.3329 56.4648 67.2579 57.0775 67.7862L61.7079 71.7786C61.7099 71.7801 61.7118 71.7815 61.7138 71.7831L62.6704 70.6721C63.0519 71.002 63.4784 71.2468 63.9261 71.4112Z" fill="#E59F6A"/>
<path d="M24.6845 59.5964L23.5687 61.0699C22.3537 62.6743 22.6693 64.9601 24.2738 66.1753C25.8783 67.3903 28.164 67.0747 29.3792 65.4702L30.4951 63.9968C31.7101 62.3923 31.3945 60.1066 29.79 58.8914C28.1855 57.6763 25.8996 57.992 24.6845 59.5964Z" fill="#F29F5C"/>
<path d="M31.4806 62.6954L29.3792 65.4702C28.1642 67.0747 28.4798 69.3604 30.0843 70.5757C31.6888 71.7907 33.9745 71.4751 35.1897 69.8706L37.2911 67.0958C38.5061 65.4913 38.1905 63.2056 36.586 61.9904C34.9813 60.7753 32.6956 61.091 31.4806 62.6954Z" fill="#F29F5C"/>
<path d="M38.0534 66.089L35.1896 69.8707C33.9745 71.4751 34.2902 73.7609 35.8946 74.9761C37.4991 76.1911 39.7849 75.8755 41.0001 74.271L43.8639 70.4894C45.079 68.8849 44.7633 66.5992 43.1589 65.384C41.5544 64.1687 39.2686 64.4845 38.0534 66.089Z" fill="#F29F5C"/>
<path d="M44.0301 70.2698L41 74.2708C39.785 75.8753 40.1006 78.161 41.7051 79.3762C43.3096 80.5913 45.5953 80.2757 46.8106 78.6712L49.8406 74.6702C51.0557 73.0657 50.7401 70.78 49.1356 69.5647C47.5309 68.3497 45.2452 68.6653 44.0301 70.2698Z" fill="#F29F5C"/>
<path d="M74.3924 28.6001L65.1639 23.4065C64.1795 22.8526 63.0499 22.6116 61.9251 22.7155L47.3536 24.0632C45.5624 24.2288 43.9618 25.2509 43.0581 26.8063L32.7879 44.4836C32.0295 45.7891 32.6248 47.4629 34.0371 47.9963L34.4572 48.1549C38.2218 49.5767 42.4734 48.3668 44.9251 45.176L48.8601 40.0549C48.8601 40.0549 58.3188 51.0066 68.7328 38.217" fill="#F29F5C"/>
<path d="M99.9888 60.3796L95.1621 21.1706C95.1146 20.7851 94.916 20.4341 94.6098 20.195C94.3035 19.956 93.915 19.8486 93.5293 19.8958L82.2426 21.2853C79.3112 21.6462 77.22 24.3247 77.5809 27.2559L81.4567 58.7402C81.7903 61.4505 84.1049 63.4425 86.7692 63.4425C86.9864 63.4425 87.2065 63.4292 87.4274 63.4021L98.714 62.0126C99.5168 61.9136 100.088 61.1826 99.9888 60.3796Z" fill="#3791AE"/>
<path d="M99.9889 60.3797L99.459 56.0758C99.2187 56.4283 98.8352 56.6803 98.3785 56.7365L86.5471 58.1929C86.3155 58.2215 86.0848 58.2353 85.8571 58.2353C83.8649 58.2353 82.06 57.1724 81.0616 55.5322L81.4565 58.74C81.7901 61.4504 84.1047 63.4423 86.769 63.4423C86.9862 63.4423 87.2063 63.4291 87.4272 63.4019L98.7139 62.0125C99.5168 61.9136 100.088 61.1826 99.9889 60.3797Z" fill="#36697C"/>
<path d="M17.7573 21.285L6.47066 19.8956C6.08453 19.8481 5.69645 19.9558 5.3902 20.1948C5.08395 20.4339 4.88532 20.7849 4.83786 21.1704L0.0111202 60.3796C-0.0877075 61.1825 0.483189 61.9136 1.28592 62.0124L12.5726 63.4019C12.7937 63.429 13.0134 63.4423 13.2308 63.4423C15.8948 63.4423 18.2097 61.4501 18.5433 58.74L22.419 27.2557C22.78 24.3245 20.6888 21.646 17.7573 21.285Z" fill="#ED5575"/>
<path d="M0.0111843 60.3797L0.541065 56.0758C0.781298 56.4283 1.16489 56.6803 1.62153 56.7365L13.4529 58.1929C13.6846 58.2215 13.9152 58.2353 14.143 58.2353C16.1351 58.2353 17.94 57.1724 18.9385 55.5322L18.5435 58.74C18.2099 61.4504 15.8953 63.4423 13.2311 63.4423C13.0139 63.4423 12.7938 63.4291 12.5729 63.4019L1.28618 62.0125C0.483057 61.9136 -0.0876435 61.1826 0.0111843 60.3797Z" fill="#CC3A60"/>
<path d="M90.6246 56.9332C92.1885 56.9332 93.4562 55.6654 93.4562 54.1015C93.4562 52.5377 92.1885 51.2699 90.6246 51.2699C89.0607 51.2699 87.793 52.5377 87.793 54.1015C87.793 55.6654 89.0607 56.9332 90.6246 56.9332Z" fill="#EBEEF2"/>
<path d="M9.21676 56.9332C10.7806 56.9332 12.0484 55.6654 12.0484 54.1015C12.0484 52.5377 10.7806 51.2699 9.21676 51.2699C7.65289 51.2699 6.38513 52.5377 6.38513 54.1015C6.38513 55.6654 7.65289 56.9332 9.21676 56.9332Z" fill="#EBEEF2"/>
</svg>

<svg width="100" height="100" fill="none" xmlns="http://www.w3.org/2000/svg"><path d="M81.69 48.653l-2.54-20.636-4.76.586.002-.003-9.228-5.194a5.562 5.562 0 00-3.239-.69l-14.571 1.347a5.56 5.56 0 00-4.296 2.743l-10.27 17.678a2.443 2.443 0 001.249 3.512l.42.159a9.113 9.113 0 002.47.551l-1.302 1.133-2.604 2.269-7.404 6.316a3.164 3.164 0 00-.307 4.465l.75.86a4.066 4.066 0 005.736.392l2.83 3.246a4.06 4.06 0 005.735.391l2.827 3.246a4.06 4.06 0 003.567 1.365 4.04 4.04 0 002.172-.97l1.536 1.328a4.068 4.068 0 005.739.394l2.088-1.822 17.558-13.675.02-.017 6.927-.007-1.104-8.967z" fill="#F29F5C"/><path d="M74.166 52.31l-.019.018-17.558 13.674-2.088 1.823a4.068 4.068 0 01-5.739-.395l-1.536-1.327a4.039 4.039 0 01-2.172.97 4.061 4.061 0 01-3.567-1.365l-2.827-3.246a4.059 4.059 0 01-5.735-.392l-2.83-3.246a4.065 4.065 0 01-5.035.24 3.162 3.162 0 00.25 3.825l.751.86a4.066 4.066 0 005.736.392l2.83 3.246a4.06 4.06 0 005.735.391l2.827 3.247a4.06 4.06 0 003.566 1.364 4.04 4.04 0 002.172-.97l1.537 1.328a4.068 4.068 0 005.739.394l2.088-1.822 17.558-13.674.019-.018 6.927-.007-.766-6.225-7.863.916z" fill="#D37D42"/><path d="M77.363 61.237l-9.407-8.112-2.616-2.254-1.872-1.612-8.048-6.937.93-7.912a5.46 5.46 0 00-3.968-5.9L34.84 23.656a4.06 4.06 0 00-4.697 2.062l-2.206 4.306-9.47-.643-2.426 20.65-1.054 8.973 9.218.613.02.018 19.257 16.6 2.099 1.81a4.068 4.068 0 005.736-.426l2.809-3.259a4.04 4.04 0 002.178.958 4.06 4.06 0 003.558-1.384l2.81-3.262a4.059 4.059 0 005.733-.423l2.811-3.262a4.066 4.066 0 005.733-.423l.747-.865a3.163 3.163 0 00-.332-4.462z" fill="#F9C295"/><path d="M77.363 61.237l-2.865-2.471a3.358 3.358 0 01-.14 4.212l-.791.917a4.316 4.316 0 01-6.086.45l-2.986 3.462a4.31 4.31 0 01-6.086.45l-2.981 3.463a4.31 4.31 0 01-3.778 1.469 4.286 4.286 0 01-2.312-1.017l-2.982 3.46a4.287 4.287 0 01-2.045 1.318l1.27 1.095a4.068 4.068 0 005.735-.426l2.809-3.259a4.04 4.04 0 002.178.958 4.06 4.06 0 003.558-1.384l2.81-3.261a4.059 4.059 0 005.733-.423l2.811-3.263a4.066 4.066 0 005.733-.423l.747-.865a3.164 3.164 0 00-.332-4.462z" fill="#E59F6A"/><path d="M72.168 65.901l-5.155-4.444a1.465 1.465 0 00-1.913 2.219l5.145 4.436.97-1.125c.387.334.82.577 1.274.74a1.466 1.466 0 00-.321-1.826zm-8.242 5.51a1.464 1.464 0 00-.305-1.851l-4.63-3.993a1.465 1.465 0 00-1.913 2.22l4.63 3.992.006.004.956-1.11c.382.329.808.574 1.256.738z" fill="#E59F6A"/><path d="M24.684 59.596L23.57 61.07a3.644 3.644 0 005.81 4.4l1.116-1.473a3.644 3.644 0 00-5.81-4.4z" fill="#F29F5C"/><path d="M31.48 62.695l-2.1 2.775a3.645 3.645 0 005.81 4.4l2.101-2.774a3.644 3.644 0 00-5.81-4.4z" fill="#F29F5C"/><path d="M38.053 66.089l-2.863 3.782a3.644 3.644 0 005.81 4.4l2.864-3.782a3.644 3.644 0 00-5.81-4.4z" fill="#F29F5C"/><path d="M44.03 70.27l-3.03 4a3.644 3.644 0 005.81 4.401l3.03-4a3.644 3.644 0 00-5.81-4.401zM74.392 28.6l-9.228-5.194a5.561 5.561 0 00-3.239-.69l-14.571 1.347a5.56 5.56 0 00-4.296 2.743l-10.27 17.678a2.443 2.443 0 001.25 3.512l.42.159a9.132 9.132 0 0010.467-2.979l3.935-5.121s9.459 10.952 19.873-1.838" fill="#F29F5C"/><path d="M99.989 60.38l-4.827-39.21a1.465 1.465 0 00-1.633-1.274l-11.286 1.39a5.362 5.362 0 00-4.662 5.97l3.876 31.484a5.364 5.364 0 005.97 4.662l11.287-1.39a1.465 1.465 0 001.275-1.632z" fill="#3791AE"/><path d="M99.989 60.38l-.53-4.304a1.53 1.53 0 01-1.08.66l-11.832 1.457a5.629 5.629 0 01-5.486-2.66l.395 3.207a5.364 5.364 0 005.971 4.662l11.287-1.39a1.465 1.465 0 001.275-1.632z" fill="#36697C"/><path d="M17.757 21.285l-11.286-1.39a1.464 1.464 0 00-1.633 1.275L.01 60.38a1.465 1.465 0 001.275 1.632l11.287 1.39a5.365 5.365 0 005.97-4.662l3.876-31.484a5.362 5.362 0 00-4.662-5.971z" fill="#ED5575"/><path d="M.011 60.38l.53-4.304c.24.352.624.604 1.08.66l11.832 1.457a5.63 5.63 0 005.486-2.66l-.395 3.207a5.364 5.364 0 01-5.971 4.662l-11.287-1.39A1.465 1.465 0 01.011 60.38z" fill="#CC3A60"/><path d="M90.625 56.933a2.832 2.832 0 100-5.663 2.832 2.832 0 000 5.663zm-81.408 0a2.832 2.832 0 100-5.663 2.832 2.832 0 000 5.663z" fill="#EBEEF2"/></svg>
